X:1
T:Hidden Away with Jesus
T:Hidden Away with Jesus
T:Margaret Mae Simpson
T:May Anderson Hawkins, 1904
T:Public Domain Courtesy of the Cyber Hymnal™
T:Public Domain Courtesy of the Cyber Hymnal™
C:Margaret Mae Simpson
Z:Public Domain
Z:Courtesy of the Cyber Hymnal™
%%score ( 1 2 ) ( 3 4 )
L:1/8
Q:1/4=94
M:3/4
K:Ab
V:1 treble 
V:2 treble 
V:3 bass 
V:4 bass 
V:1
 [CE][CA] | [Ec]3 [=D=B] [Ec][F_d] | [Ec] [CA]3 [CE][Ec] | [Gc]3 [GB] [DG][DE] | [CA]4 [CE][CA] | %5
w: 1.~In the|sec- ret of His|pre- sence! Hast thou|found this blest re-|treat, Hid a-|
w: 2.~Lis- ten,|dear one, Christ is|yearn- ing— With an|un- told stress of|need— Straight in-|
w: 3.~Do not|ques- tion of the|mor- row, Nor the|path where He may|choose In His|
w: 4.~In the|se- cret of His|pre- sence, See- ing|but His bless- èd|face, Thou, e’en|
 [Ec]3 [=D=B] [Ec][F_d] | [Ec] [CA]3 [Ec][Ec] | [EB]3 [=DF] [DG][DA] | [EB]4 EE | %9
w: way from car- less|seek- ers, And from|hur- rying, rest- less|feet? Has thou|
w: to His hal- lowed|pre- sence Ev- ery|seek- ing heart to|lead. Cease thy|
w: ten- der love to|lead thee; All our|plan- nings we must|lose If we|
w: thou, tho’ weak and|help- less— Just a|sin- ner saved by|grace— Thou canst|
 [Ed]3 [Ed] [Ed][Ed] | [Ed] [Ec]3 [EA][EA] | [FA]3 [FB] [FA][DF] | [CE]4 [CE][CA] | %13
w: sought and yet hast|found not? Art thou|sad and hea- vy|eyed? Dost thou|
w: hur- rying and thy|strug- gling: Cast thy-|self prone at His|feet; Yield thy|
w: would a- bide each|mo- ment In His|pre- sence rest- ful,|calm, Find- ing|
w: go and tell the|lost ones Of the|Sav- ior thou hast|found, Till, in|
 [Ec]3 [EA] [Ec][_Ge] | [_Ge] [Fd]3 [FA][Ad] | [Ac]3 [EA] [DG][DB] | [CA]4 || %17
w: whis- per: “O- thers|find Him, Yet my|plead- ings are de-|nied”?|
w: life, thy will, thy|“all things” To His|guid- ance full, com-|plete.|
w: in His love en-|fold- ed, For each|hurt a heal- ing|balm.|
w: soil now parched and|bar- ren, Heal- ing|wa- ters may a-|bound.|
"^Refrain" [EB]3 [EB] [Ec][Ed] | c3 A3 | [Fd]3 [Fd] [Fe][Af] | e3- [Ae]2 z | %21
w: ||||
w: Blest rock of sal-|va- tion!|Once riv- en for|me, Safe-|
w: ||||
w: ||||
 [Ee]2 [Ee][Ee] [Ed][Ec] | [FB]3 [DF]2 [FA] | [DG][DG] [DG][DG] [CA][DB] | A3- [CA]3 |] %25
w: ||||
w: * ly hid in Thy|bo- som, I’m|rest- ing, yes rest- ing in|Thee. *|
w: ||||
w: ||||
V:2
 x2 | x6 | x6 | x6 | x6 | x6 | x6 | x6 | x4 EE | x6 | x6 | x6 | x6 | x6 | x6 | x6 | x4 || x6 | %18
 (EE E) (E2 _G) | x6 | AA A x3 | x6 | x6 | x6 | CE D x3 |] %25
V:3
 [A,,A,][A,,A,] | [A,,A,]3 [A,,A,] [A,,A,][A,,A,] | [A,,A,] [A,,E,]3 A,A, | %3
w: ~ ~|~ ~ ~ ~|~ ~ ~ ~|
 [E,E]3 [E,D] [E,B,][E,G,] | [A,,E,]4 [A,,A,][A,,A,] | [A,,A,]3 [A,,A,] [A,,A,][A,,A,] | %6
w: ~ ~ ~ ~|~ ~ ~|~ ~ ~ ~|
 [A,,E,] [A,,E,]3 [A,,F,][=A,,^G,] | [B,,G,]3 [B,,A,] [B,,A,][B,,A,] | [E,G,]4 [E,G,][E,G,] | %9
w: ~ ~ ~ ~|~ ~ ~ ~|~ ~ ~|
 [E,G,]3 [E,G,] [F,A,][G,B,] | A, [A,,A,]3 [A,,C][C,A,] | [D,A,]3 [D,A,] [D,D][D,A,] | %12
w: ~ ~ ~ ~|~ ~ ~ ~|~ ~ ~ ~|
 [A,,A,]4 [A,,A,][A,,A,] | [A,,A,]3 [A,C] A,[A,C] | [C,A,] [D,A,]3 [D,D][D,F] | %15
w: ~ ~ ~|~ ~ ~ ~|~ ~ ~ ~|
 [E,E]3 [E,C] [E,B,][E,G,] | [A,,A,]4 || [E,G,]3 [E,G,] [E,A,][G,B,] | A,A, A, [A,C]2 [A,C] | %19
w: ~ ~ ~ ~|~|Blest rock of sal-|va- tion, sal- va- tion,|
 [D,A,]3 [D,A,] [D,A,][D,A,] | CC C [A,,C]2 z | [A,,C]2 [A,,C][A,,C] [B,,G,][C,A,] | %22
w: ~ ~ ~ ~|~ yes, for ~|* ~ ~ ~ ~|
 [D,B,]3 [B,,B,]2 [D,B,] | [E,B,][E,B,] [E,B,][E,B,] [E,A,][E,G,] | A,G, F, [A,,E,]3 |] %25
w: ~ ~ ~|~ ~ ~ ~ ~ I’m|rest- ing in Thee.|
V:4
 x2 | x6 | x4 A,A, | x6 | x6 | x6 | x6 | x6 | x6 | x6 | A, x5 | x6 | x6 | x4 A, x | x6 | x6 | x4 || %17
 x6 | A,3 x3 | x6 | A,,3- x3 | x6 | x6 | x6 | A,,3- x3 |] %25

